packages/icon/src/svg/channel.icon.svg

<?xml version="1.0" encoding="UTF-8"?>
<svg width="24px" height="24px" viewBox="0 0 24 24" version="1.1" xmlns="http://www.w3.org/2000/svg" xmlns:xlink="http://www.w3.org/1999/xlink">
    <!-- Generator: Sketch 46.1 (44463) - http://www.bohemiancoding.com/sketch -->
    <title>Icon/channel.icon</title>
    <desc>Created with Sketch.</desc>
    <defs>
        <path d="M13,13.8550607 L13,23 L11,23 L11,13.8550607 C9.55425553,13.4247861 8.5,12.0855103 8.5,10.5 C8.5,8.56700338 10.0670034,7 12,7 C13.9329966,7 15.5,8.56700338 15.5,10.5 C15.5,12.0855103 14.4457445,13.4247861 13,13.8550607 L13,13.8550607 Z M5.04116837,1.34364259 L6.25139996,2.93605257 C3.97161523,4.67135708 2.5,7.41382146 2.5,10.5 C2.5,13.5861785 3.97161523,16.3286429 6.25139996,18.0639474 L5.04116837,19.6563574 C2.28142896,17.5557256 0.5,14.2359003 0.5,10.5 C0.5,6.76409967 2.28142896,3.44427436 5.04116837,1.34364259 L5.04116837,1.34364259 Z M18.9588316,1.34364259 C21.718571,3.44427436 23.5,6.76409967 23.5,10.5 C23.5,14.2359003 21.718571,17.5557256 18.9588316,19.6563574 L17.7486,18.0639474 C20.0283848,16.3286429 21.5,13.5861785 21.5,10.5 C21.5,7.41382146 20.0283848,4.67135708 17.7486,2.93605257 L18.9588316,1.34364259 L18.9588316,1.34364259 Z M7.46163154,4.52846256 L8.67186313,6.12087254 C7.35198776,7.12552252 6.5,8.71326506 6.5,10.5 C6.5,12.2867349 7.35198776,13.8744775 8.67186313,14.8791275 L7.46163154,16.4715374 C5.6618015,15.1015602 4.5,12.9364567 4.5,10.5 C4.5,8.06354326 5.6618015,5.8984398 7.46163154,4.52846256 L7.46163154,4.52846256 Z M16.5383685,4.52846256 C18.3381985,5.8984398 19.5,8.06354326 19.5,10.5 C19.5,12.9364567 18.3381985,15.1015602 16.5383685,16.4715374 L15.3281369,14.8791275 C16.6480122,13.8744775 17.5,12.2867349 17.5,10.5 C17.5,8.71326506 16.6480122,7.12552252 15.3281369,6.12087254 L16.5383685,4.52846256 L16.5383685,4.52846256 Z M12,12 C12.8284271,12 13.5,11.3284271 13.5,10.5 C13.5,9.67157288 12.8284271,9 12,9 C11.1715729,9 10.5,9.67157288 10.5,10.5 C10.5,11.3284271 11.1715729,12 12,12 Z" id="path-1"></path>
    </defs>
    <g id="Symbols" stroke="none" stroke-width="1" fill="none" fill-rule="evenodd">
        <g id="Icon/channel">
            <mask id="mask-2" fill="white">
                <use xlink:href="#path-1"></use>
            </mask>
            <use id="Combined-Shape" fill="#000000" xlink:href="#path-1"></use>
            <g id="Color/Neutral/White" mask="url(#mask-2)" fill="#FFFFFF">
                <rect id="222222-Fill" x="0" y="0" width="24" height="24"></rect>
            </g>
        </g>
    </g>
</svg>

<svg viewBox="0 0 24 24" xmlns="http://www.w3.org/2000/svg"><path d="M13 13.855V23h-2v-9.145c-1.4457-.4302-2.5-1.7695-2.5-3.355C8.5 8.567 10.067 7 12 7s3.5 1.567 3.5 3.5c0 1.5855-1.0543 2.9248-2.5 3.355zM5.0412 1.3437L6.2514 2.936C3.9716 4.6715 2.5 7.414 2.5 10.5s1.4716 5.8286 3.7514 7.564l-1.2102 1.5924C2.2814 17.5557.5 14.236.5 10.5c0-3.736 1.7814-7.0557 4.5412-9.1564zm13.9176 0C21.7186 3.4443 23.5 6.764 23.5 10.5c0 3.736-1.7814 7.0557-4.5412 9.1564l-1.2102-1.5925C20.0284 16.3284 21.5 13.586 21.5 10.5s-1.4716-5.8286-3.7514-7.564l1.2102-1.5924zM7.4616 4.5287l1.2104 1.592C7.352 7.1255 6.5 8.7133 6.5 10.5c0 1.7867.852 3.3745 2.172 4.379l-1.2104 1.5925C5.6618 15.1015 4.5 12.9365 4.5 10.5c0-2.4365 1.1618-4.6016 2.9616-5.9715zm9.0768 0C18.3382 5.8982 19.5 8.0634 19.5 10.5s-1.1618 4.6016-2.9616 5.9715L15.328 14.879c1.32-1.0045 2.172-2.5923 2.172-4.379 0-1.7867-.852-3.3745-2.172-4.379l1.2104-1.5925zM12 12c.8284 0 1.5-.6716 1.5-1.5S12.8284 9 12 9s-1.5.6716-1.5 1.5.6716 1.5 1.5 1.5z" /></svg>
